X:1
T:Title
%%score { ( 1 3 ) | ( 2 4 ) }
L:1/8
M:9/8
K:Ab
V:1 treble nm="Grand Piano"
V:3 treble 
V:2 bass 
V:4 bass 
V:1
 z3 z3[Q:1/4=100] [CE][_C=D][_DF] | [CE]3 [A,C]2 [CE] [CA][B,G][DB] | [CA]6 [Ec][DB][Fd] | %3
 [Ec]3 [CA]2 [CG] [=DF][DG][DA] | [DB]6 z3 | [Ec][DB][Fd] [Ec]3 [CA]2 [Ec] | [EB][EA][EG] F3 A3 | %7
 .E3 [Ae]3- [Ae][Ec][CEA] | [DEB]3 [CEA]6 | [Ge][GB][GB] [Gd]3 [DG]3 | [DB][CA][CA] [Ec]3 [CE]2 E | %11
 EFG A3 [=DB]2 [Dc] | B6- B2 z | B=AB d3 d3 | z3 c3 z3 | %15
 [Ee]3- [Ee][EA][Fd] [Ec]2 [DB][Q:1/4=97][Q:1/4=94][Q:1/4=91][Q:1/4=88][Q:1/4=84][Q:1/4=81][Q:1/4=78] | %16
[M:3/4] [CA]6 |] %17
V:2
 z3 z3 [A,,A,][A,,A,][A,,A,] | [A,,A,]3 [A,,E,]2 [A,,A,] [A,,E,][A,,E,][A,,E,] | %2
 [A,,E,]6 [A,,A,][A,,A,][A,,A,] | [A,,A,]3 [A,,A,]2 [A,,A,] [B,,A,][B,,G,][B,,F,] | [E,G,]6 z3 | %5
 [A,,A,][A,,A,][A,,A,] [A,,A,]3 [A,,E,]2 [A,,A,] | [C,A,][C,A,][C,A,] [D,A,D]3 [D,F,D]3 | %7
 .[E,A,C]3 [E,C]3- [E,C][E,A,]E, | E,3 A,,6 | [E,B,][E,E][E,E] [E,B,]3 [E,B,]3 | %10
 [A,,A,][A,,A,][A,,A,] [A,,A,]3 [A,,A,]2 [A,C] | [G,B,D][G,B,D][G,B,D] [F,A,C]3 [B,,A,]2 [B,,A,] | %12
 [G,E]3 z3 z3 | [E,G,E][E,_G,E][E,=G,E] [E,B,E]3 [E,B,E]3 | [D,B,][C,A,][B,,G,] [A,,A,]3 [B,,G,]3 | %15
 [C,A,]3- [C,A,][C,A,][D,A,] [E,A,]2 [E,G,] |[M:3/4] [A,,A,]6 |] %17
V:3
 x9 | x9 | x9 | x9 | x9 | x9 | x9 | x9 | x9 | x9 | x9 | x9 | z GF E6 | x9 | %14
 [EG][EA][EB] E3- [Ed]3 | x9 |[M:3/4] x6 |] %17
V:4
 x9 | x9 | x9 | x9 | x9 | x9 | x9 | x9 | x9 | x9 | x9 | x9 | %12
 E,-[E,-B,][E,-A,] [E,G,]3- [E,G,-]2 G, | x9 | x9 | x9 |[M:3/4] x6 |] %17

